X: 1
T: My Mind Will Never Be Easy
Z: JACKB
S: https://thesession.org/tunes/191#setting31300
R: slip jig
M: 9/8
L: 1/8
K: Bmin
dc|:BAF FEF D2 E|F2 A ABF Adc|BAF FEF D2 E|1 F2 B BcA Bdc:|2 F2 B BcA B3||
|:ABc dec d3|F2 A ABF A3|Bcd edc BAG|1 F2 B BcA B3:|2 FBB BcA Bdc||

